static/cards/FrenchDeck/cyberwave/card_joker_red.svg

<svg xmlns="http://www.w3.org/2000/svg" width="822" height="1122" fill="none" viewBox="0 0 822 1122"><rect width="822" height="1122" fill="#1a0033" rx="20"/><g clip-path="url(#a)"><path fill="#b366ff" d="M72.112 160.92q-12.672 0-20.608-4.864-1.408-.768-.64-2.048l1.792-2.816q.384-.768.896-.768.384 0 .896.384 3.072 2.048 7.424 3.2a41.2 41.2 0 0 0 9.216 1.024q9.217 0 13.696-4.48 4.608-4.48 4.608-13.568v-62.08q0-2.944 2.944-2.944h1.024q2.944 0 2.944 2.944v61.824q0 10.88-6.272 17.536-6.145 6.656-17.92 6.656m72.69 0q-15.744 0-24.192-8.704-8.32-8.832-8.32-23.936t8.32-23.808q8.448-8.832 24.192-8.832t24.064 8.832q8.448 8.705 8.448 23.808t-8.448 23.936q-8.32 8.704-24.064 8.704m0-5.888q12.545 0 19.2-6.912 6.656-7.04 6.656-19.84t-6.656-19.712q-6.656-7.04-19.2-7.04t-19.2 7.04q-6.656 6.912-6.656 19.712t6.656 19.84q6.656 6.912 19.2 6.912M196.919 159q-2.944 0-2.944-2.944V74.904q0-2.944 2.944-2.944h1.024q2.944 0 2.944 2.944v81.152q0 2.944-2.944 2.944zm41.984 0q-.896 0-1.28-.128-.257-.128-.768-.64l-28.16-28.16-.896-.896q-.64-.768-.896-1.28-.256-.64-.256-1.536 0-1.024.384-1.664t.896-1.152q.511-.64.768-.896l26.88-24.32q.512-.512.768-.64.384-.128 1.28-.128h4.608q1.28 0 1.28.896 0 .511-.896 1.408l-28.928 26.496 30.208 30.336q.896.896.896 1.408 0 .896-1.28.896zm53.548 1.92q-14.592 0-24.064-7.68t-9.472-23.68q0-16.64 8.448-25.216 8.448-8.704 23.808-8.704 30.72 0 30.72 33.152 0 1.152-.64 1.92-.64.64-1.92.64h-53.632q0 11.648 7.296 17.664 7.424 6.016 20.48 6.016 6.016 0 11.264-1.408 5.376-1.408 9.088-3.968.512-.384.896-.384.512 0 .896.768l1.664 2.816q.256.384.256.896t-.896 1.152q-4.736 3.072-11.264 4.48a55.2 55.2 0 0 1-12.928 1.536m22.784-35.84q0-11.264-6.016-17.408-6.017-6.144-18.048-6.144-12.16 0-18.816 6.4t-6.656 17.152zM341.419 159q-2.944 0-2.944-2.944v-55.552q0-1.537.512-2.176.512-.768 1.92-.768h1.28q1.409 0 1.92.768.512.64.512 2.176v5.504q3.456-4.864 8.704-7.552 5.376-2.816 12.544-2.816 1.536 0 3.072.256 1.536.255 2.176.64 1.024.64.768 1.408l-.512 3.712q-.128 1.152-1.408.64-2.56-.768-5.76-.768-8.064 0-13.44 4.608-5.376 4.48-5.376 12.672v37.248q0 2.944-2.944 2.944zM741.888 957.08q12.672 0 20.608 4.864 1.408.768.64 2.048l-1.792 2.816q-.384.768-.896.768-.384 0-.896-.384-3.072-2.048-7.424-3.2a41.2 41.2 0 0 0-9.216-1.024q-9.216 0-13.696 4.48-4.608 4.48-4.608 13.568v62.084q0 2.94-2.944 2.94h-1.024q-2.944 0-2.944-2.94v-61.828q0-10.88 6.272-17.536 6.144-6.656 17.92-6.656m-72.69 0q15.744 0 24.192 8.704 8.32 8.832 8.32 23.936c0 10.069-2.773 18.01-8.32 23.81-5.632 5.89-13.696 8.83-24.192 8.83s-18.517-2.94-24.064-8.83c-5.632-5.8-8.448-13.741-8.448-23.81q0-15.104 8.448-23.936 8.32-8.704 24.064-8.704m0 5.888q-12.544 0-19.2 6.912-6.656 7.04-6.656 19.84c0 8.533 2.219 15.1 6.656 19.71 4.437 4.7 10.837 7.04 19.2 7.04s14.763-2.34 19.2-7.04c4.437-4.61 6.656-11.177 6.656-19.71q0-12.8-6.656-19.84-6.656-6.912-19.2-6.912M617.081 959q2.944 0 2.944 2.944v81.156q0 2.94-2.944 2.94h-1.024q-2.944 0-2.944-2.94v-81.156q0-2.944 2.944-2.944zm-41.984 0q.896 0 1.28.128.256.128.768.64l28.16 28.16.896.896q.64.768.896 1.28.256.64.256 1.536 0 1.024-.384 1.664a6 6 0 0 1-.896 1.152q-.511.64-.768.896l-26.88 24.318c-.341.34-.597.56-.768.64-.256.09-.683.13-1.28.13h-4.608q-1.28 0-1.28-.9c0-.34.299-.81.896-1.4l28.928-26.5-30.208-30.336q-.896-.896-.896-1.408 0-.896 1.28-.896zm-53.548-1.92q14.592 0 24.064 7.68t9.472 23.68q0 16.64-8.448 25.22-8.448 8.7-23.808 8.7-30.72 0-30.72-33.152 0-1.152.64-1.92.64-.64 1.92-.64h53.632q0-11.647-7.296-17.664-7.424-6.016-20.48-6.016-6.016 0-11.264 1.408-5.376 1.408-9.088 3.968-.512.384-.896.384-.512 0-.896-.768l-1.664-2.816a1.58 1.58 0 0 1-.256-.896q0-.512.896-1.152 4.736-3.072 11.264-4.48a55.2 55.2 0 0 1 12.928-1.536m-22.784 35.84c0 7.51 2.005 13.31 6.016 17.41 4.011 4.09 10.027 6.14 18.048 6.14 8.107 0 14.379-2.13 18.816-6.4 4.437-4.26 6.656-9.98 6.656-17.15zM472.581 959q2.944 0 2.944 2.944v55.556c0 1.02-.171 1.75-.512 2.17-.341.51-.981.77-1.92.77h-1.28c-.939 0-1.579-.26-1.92-.77-.341-.42-.512-1.15-.512-2.17v-5.51c-2.304 3.24-5.205 5.76-8.704 7.55q-5.376 2.82-12.544 2.82c-1.024 0-2.048-.09-3.072-.26s-1.749-.38-2.176-.64c-.683-.42-.939-.89-.768-1.4l.512-3.72c.085-.76.555-.98 1.408-.64 1.707.52 3.627.77 5.76.77 5.376 0 9.856-1.53 13.44-4.61 3.584-2.98 5.376-7.21 5.376-12.668v-37.248q0-2.944 2.944-2.944zM406.5 382.294c-109.503-.001-183.685-127.622-188.892-60.119C189.445 687.283 359.26 808.474 406.5 808.474z"/><path fill="#1a0033" d="M324.818 566.052c23.084.46 37.14-40.616 41.475-55.514.664-2.285-1.53-4.305-3.804-3.605-8.107 2.495-24.158 6.872-37.671 7.109-12.922.226-28.052-4.221-35.901-6.884-2.284-.775-4.569 1.247-3.928 3.572 4.099 14.887 17.204 54.872 39.829 55.322"/><path fill="#f2e6ff" d="M407.208 620.707c-54.499 0-94.943 56.33-110.919 87.716-1.487 2.922 1.461 4.706 3.568 2.195 16.701-19.903 45.435-49.36 107.351-49.36z"/><path fill="#26004d" d="M284.86 454.941c.317-1.208 1.327-2.061 2.559-2.119 6.408-.305 26.546-.889 39.701 2.926 14.137 4.099 32.415 16.816 38.003 20.856a3.07 3.07 0 0 1 1.165 3.265l-.653 2.484c-.513 1.952-2.743 2.795-4.465 1.702-7.062-4.483-23.628-14.492-36.372-18.254-11.972-3.535-29.72-4.259-37.603-4.403-2.001-.036-3.501-2.02-2.987-3.977z"/><path fill="#f2e6ff" d="M406.5 382.294c109.503-.001 183.685-127.622 188.892-60.119C623.555 687.283 453.74 808.474 406.5 808.474z"/><path fill="#1a0033" d="M488.182 566.052c-23.084.46-37.14-40.616-41.475-55.514-.664-2.285 1.53-4.305 3.804-3.605 8.107 2.495 24.158 6.872 37.671 7.109 12.922.226 28.052-4.221 35.901-6.884 2.284-.775 4.569 1.247 3.928 3.572-4.099 14.887-17.204 54.872-39.829 55.322M405.792 620.707c54.499 0 94.943 56.33 110.919 87.716 1.487 2.922-1.461 4.706-3.568 2.195-16.701-19.903-45.435-49.36-107.351-49.36z"/><path fill="#26004d" d="M528.14 454.941c-.317-1.208-1.327-2.061-2.559-2.119-6.408-.305-26.546-.889-39.701 2.926-14.137 4.099-32.415 16.816-38.003 20.856a3.07 3.07 0 0 0-1.165 3.265l.653 2.484c.513 1.952 2.743 2.795 4.465 1.702 7.062-4.483 23.628-14.492 36.372-18.254 11.972-3.535 29.72-4.259 37.603-4.403 2.001-.036 3.501-2.02 2.987-3.977z"/></g><defs><clipPath id="a"><path fill="#fff" d="M46 48h722v1022H46z"/></clipPath></defs></svg>

<svg width="822" height="1122" viewBox="0 0 822 1122" fill="none" xmlns="http://www.w3.org/2000/svg">
<rect width="822" height="1122" rx="20" fill="#1A0033"/>
<g clip-path="url(#clip0_56_1367)">
<path d="M72.112 160.92C63.664 160.92 56.7947 159.299 51.504 156.056C50.5653 155.544 50.352 154.861 50.864 154.008L52.656 151.192C52.912 150.68 53.2107 150.424 53.552 150.424C53.808 150.424 54.1067 150.552 54.448 150.808C56.496 152.173 58.9707 153.24 61.872 154.008C64.8587 154.691 67.9307 155.032 71.088 155.032C77.232 155.032 81.7973 153.539 84.784 150.552C87.856 147.565 89.392 143.043 89.392 136.984V74.904C89.392 72.9413 90.3733 71.96 92.336 71.96H93.36C95.3227 71.96 96.304 72.9413 96.304 74.904V136.728C96.304 143.981 94.2133 149.827 90.032 154.264C85.936 158.701 79.9627 160.92 72.112 160.92ZM144.802 160.92C134.306 160.92 126.242 158.019 120.61 152.216C115.063 146.328 112.29 138.349 112.29 128.28C112.29 118.211 115.063 110.275 120.61 104.472C126.242 98.584 134.306 95.64 144.802 95.64C155.298 95.64 163.319 98.584 168.866 104.472C174.498 110.275 177.314 118.211 177.314 128.28C177.314 138.349 174.498 146.328 168.866 152.216C163.319 158.019 155.298 160.92 144.802 160.92ZM144.802 155.032C153.165 155.032 159.565 152.728 164.002 148.12C168.439 143.427 170.658 136.813 170.658 128.28C170.658 119.747 168.439 113.176 164.002 108.568C159.565 103.875 153.165 101.528 144.802 101.528C136.439 101.528 130.039 103.875 125.602 108.568C121.165 113.176 118.946 119.747 118.946 128.28C118.946 136.813 121.165 143.427 125.602 148.12C130.039 152.728 136.439 155.032 144.802 155.032ZM196.919 159C194.956 159 193.975 158.019 193.975 156.056V74.904C193.975 72.9413 194.956 71.96 196.919 71.96H197.943C199.906 71.96 200.887 72.9413 200.887 74.904V156.056C200.887 158.019 199.906 159 197.943 159H196.919ZM238.903 159C238.306 159 237.879 158.957 237.623 158.872C237.452 158.787 237.196 158.573 236.855 158.232L208.695 130.072C208.524 129.901 208.226 129.603 207.799 129.176C207.372 128.664 207.074 128.237 206.903 127.896C206.732 127.469 206.647 126.957 206.647 126.36C206.647 125.677 206.775 125.123 207.031 124.696C207.287 124.269 207.586 123.885 207.927 123.544C208.268 123.117 208.524 122.819 208.695 122.648L235.575 98.328C235.916 97.9867 236.172 97.7733 236.343 97.688C236.599 97.6027 237.026 97.56 237.623 97.56H242.231C243.084 97.56 243.511 97.8587 243.511 98.456C243.511 98.7973 243.212 99.2667 242.615 99.864L213.687 126.36L243.895 156.696C244.492 157.293 244.791 157.763 244.791 158.104C244.791 158.701 244.364 159 243.511 159H238.903ZM292.451 160.92C282.723 160.92 274.702 158.36 268.387 153.24C262.072 148.12 258.915 140.227 258.915 129.56C258.915 118.467 261.731 110.061 267.363 104.344C272.995 98.5413 280.931 95.64 291.171 95.64C311.651 95.64 321.891 106.691 321.891 128.792C321.891 129.56 321.678 130.2 321.251 130.712C320.824 131.139 320.184 131.352 319.331 131.352H265.699C265.699 139.117 268.131 145.005 272.995 149.016C277.944 153.027 284.771 155.032 293.475 155.032C297.486 155.032 301.24 154.563 304.739 153.624C308.323 152.685 311.352 151.363 313.827 149.656C314.168 149.4 314.467 149.272 314.723 149.272C315.064 149.272 315.363 149.528 315.619 150.04L317.283 152.856C317.454 153.112 317.539 153.411 317.539 153.752C317.539 154.093 317.24 154.477 316.643 154.904C313.486 156.952 309.731 158.445 305.379 159.384C301.112 160.408 296.803 160.92 292.451 160.92ZM315.235 125.08C315.235 117.571 313.23 111.768 309.219 107.672C305.208 103.576 299.192 101.528 291.171 101.528C283.064 101.528 276.792 103.661 272.355 107.928C267.918 112.195 265.699 117.912 265.699 125.08H315.235ZM341.419 159C339.456 159 338.475 158.019 338.475 156.056V100.504C338.475 99.48 338.646 98.7547 338.987 98.328C339.328 97.816 339.968 97.56 340.907 97.56H342.187C343.126 97.56 343.766 97.816 344.107 98.328C344.448 98.7547 344.619 99.48 344.619 100.504V106.008C346.923 102.765 349.824 100.248 353.323 98.456C356.907 96.5787 361.088 95.64 365.867 95.64C366.891 95.64 367.915 95.7253 368.939 95.896C369.963 96.0667 370.688 96.28 371.115 96.536C371.798 96.9627 372.054 97.432 371.883 97.944L371.371 101.656C371.286 102.424 370.816 102.637 369.963 102.296C368.256 101.784 366.336 101.528 364.203 101.528C358.827 101.528 354.347 103.064 350.763 106.136C347.179 109.123 345.387 113.347 345.387 118.808V156.056C345.387 158.019 344.406 159 342.443 159H341.419Z" fill="#B366FF"/>
<path d="M741.888 957.08C750.336 957.08 757.205 958.701 762.496 961.944C763.435 962.456 763.648 963.139 763.136 963.992L761.344 966.808C761.088 967.32 760.789 967.576 760.448 967.576C760.192 967.576 759.893 967.448 759.552 967.192C757.504 965.827 755.029 964.76 752.128 963.992C749.141 963.309 746.069 962.968 742.912 962.968C736.768 962.968 732.203 964.461 729.216 967.448C726.144 970.435 724.608 974.957 724.608 981.016V1043.1C724.608 1045.06 723.627 1046.04 721.664 1046.04H720.64C718.677 1046.04 717.696 1045.06 717.696 1043.1V981.272C717.696 974.019 719.787 968.173 723.968 963.736C728.064 959.299 734.037 957.08 741.888 957.08ZM669.198 957.08C679.694 957.08 687.758 959.981 693.39 965.784C698.937 971.672 701.71 979.651 701.71 989.72C701.71 999.789 698.937 1007.73 693.39 1013.53C687.758 1019.42 679.694 1022.36 669.198 1022.36C658.702 1022.36 650.681 1019.42 645.134 1013.53C639.502 1007.73 636.686 999.789 636.686 989.72C636.686 979.651 639.502 971.672 645.134 965.784C650.681 959.981 658.702 957.08 669.198 957.08ZM669.198 962.968C660.835 962.968 654.435 965.272 649.998 969.88C645.561 974.573 643.342 981.187 643.342 989.72C643.342 998.253 645.561 1004.82 649.998 1009.43C654.435 1014.13 660.835 1016.47 669.198 1016.47C677.561 1016.47 683.961 1014.13 688.398 1009.43C692.835 1004.82 695.054 998.253 695.054 989.72C695.054 981.187 692.835 974.573 688.398 969.88C683.961 965.272 677.561 962.968 669.198 962.968ZM617.081 959C619.044 959 620.025 959.981 620.025 961.944V1043.1C620.025 1045.06 619.044 1046.04 617.081 1046.04H616.057C614.094 1046.04 613.113 1045.06 613.113 1043.1V961.944C613.113 959.981 614.094 959 616.057 959H617.081ZM575.097 959C575.694 959 576.121 959.043 576.377 959.128C576.548 959.213 576.804 959.427 577.145 959.768L605.305 987.928C605.476 988.099 605.774 988.397 606.201 988.824C606.628 989.336 606.926 989.763 607.097 990.104C607.268 990.531 607.353 991.043 607.353 991.64C607.353 992.323 607.225 992.877 606.969 993.304C606.713 993.731 606.414 994.115 606.073 994.456C605.732 994.883 605.476 995.181 605.305 995.352L578.425 1019.67C578.084 1020.01 577.828 1020.23 577.657 1020.31C577.401 1020.4 576.974 1020.44 576.377 1020.44H571.769C570.916 1020.44 570.489 1020.14 570.489 1019.54C570.489 1019.2 570.788 1018.73 571.385 1018.14L600.313 991.64L570.105 961.304C569.508 960.707 569.209 960.237 569.209 959.896C569.209 959.299 569.636 959 570.489 959H575.097ZM521.549 957.08C531.277 957.08 539.298 959.64 545.613 964.76C551.928 969.88 555.085 977.773 555.085 988.44C555.085 999.533 552.269 1007.94 546.637 1013.66C541.005 1019.46 533.069 1022.36 522.829 1022.36C502.349 1022.36 492.109 1011.31 492.109 989.208C492.109 988.44 492.322 987.8 492.749 987.288C493.176 986.861 493.816 986.648 494.669 986.648H548.301C548.301 978.883 545.869 972.995 541.005 968.984C536.056 964.973 529.229 962.968 520.525 962.968C516.514 962.968 512.76 963.437 509.261 964.376C505.677 965.315 502.648 966.637 500.173 968.344C499.832 968.6 499.533 968.728 499.277 968.728C498.936 968.728 498.637 968.472 498.381 967.96L496.717 965.144C496.546 964.888 496.461 964.589 496.461 964.248C496.461 963.907 496.76 963.523 497.357 963.096C500.514 961.048 504.269 959.555 508.621 958.616C512.888 957.592 517.197 957.08 521.549 957.08ZM498.765 992.92C498.765 1000.43 500.77 1006.23 504.781 1010.33C508.792 1014.42 514.808 1016.47 522.829 1016.47C530.936 1016.47 537.208 1014.34 541.645 1010.07C546.082 1005.81 548.301 1000.09 548.301 992.92H498.765ZM472.581 959C474.544 959 475.525 959.981 475.525 961.944V1017.5C475.525 1018.52 475.354 1019.25 475.013 1019.67C474.672 1020.18 474.032 1020.44 473.093 1020.44H471.813C470.874 1020.44 470.234 1020.18 469.893 1019.67C469.552 1019.25 469.381 1018.52 469.381 1017.5V1011.99C467.077 1015.23 464.176 1017.75 460.677 1019.54C457.093 1021.42 452.912 1022.36 448.133 1022.36C447.109 1022.36 446.085 1022.27 445.061 1022.1C444.037 1021.93 443.312 1021.72 442.885 1021.46C442.202 1021.04 441.946 1020.57 442.117 1020.06L442.629 1016.34C442.714 1015.58 443.184 1015.36 444.037 1015.7C445.744 1016.22 447.664 1016.47 449.797 1016.47C455.173 1016.47 459.653 1014.94 463.237 1011.86C466.821 1008.88 468.613 1004.65 468.613 999.192V961.944C468.613 959.981 469.594 959 471.557 959H472.581Z" fill="#B366FF"/>
<path d="M406.5 382.294C296.997 382.293 222.815 254.672 217.608 322.175C189.445 687.283 359.26 808.474 406.5 808.474L406.5 382.294Z" fill="#B366FF"/>
<path d="M324.818 566.052C347.902 566.512 361.958 525.436 366.293 510.538C366.957 508.253 364.763 506.233 362.489 506.933C354.382 509.428 338.331 513.805 324.818 514.042C311.896 514.268 296.766 509.821 288.917 507.158C286.633 506.383 284.348 508.405 284.989 510.73C289.088 525.617 302.193 565.602 324.818 566.052Z" fill="#1A0033"/>
<path d="M407.208 620.707C352.709 620.707 312.265 677.037 296.289 708.423C294.802 711.345 297.75 713.129 299.857 710.618C316.558 690.715 345.292 661.258 407.208 661.258V620.707Z" fill="#F2E6FF"/>
<path d="M284.86 454.941C285.177 453.733 286.187 452.88 287.419 452.822C293.827 452.517 313.965 451.933 327.12 455.748C341.257 459.847 359.535 472.564 365.123 476.604C366.152 477.349 366.607 478.655 366.288 479.869L365.635 482.353C365.122 484.305 362.892 485.148 361.17 484.055C354.108 479.572 337.542 469.563 324.798 465.801C312.826 462.266 295.078 461.542 287.195 461.398C285.194 461.362 283.694 459.378 284.208 457.421L284.86 454.941Z" fill="#26004D"/>
<path d="M406.5 382.294C516.003 382.293 590.185 254.672 595.392 322.175C623.555 687.283 453.74 808.474 406.5 808.474L406.5 382.294Z" fill="#F2E6FF"/>
<path d="M488.182 566.052C465.098 566.512 451.042 525.436 446.707 510.538C446.043 508.253 448.237 506.233 450.511 506.933C458.618 509.428 474.669 513.805 488.182 514.042C501.104 514.268 516.234 509.821 524.083 507.158C526.367 506.383 528.652 508.405 528.011 510.73C523.912 525.617 510.807 565.602 488.182 566.052Z" fill="#1A0033"/>
<path d="M405.792 620.707C460.291 620.707 500.735 677.037 516.711 708.423C518.198 711.345 515.25 713.129 513.143 710.618C496.442 690.715 467.708 661.258 405.792 661.258V620.707Z" fill="#1A0033"/>
<path d="M528.14 454.941C527.823 453.733 526.813 452.88 525.581 452.822C519.173 452.517 499.035 451.933 485.88 455.748C471.743 459.847 453.465 472.564 447.877 476.604C446.848 477.349 446.393 478.655 446.712 479.869L447.365 482.353C447.878 484.305 450.108 485.148 451.83 484.055C458.892 479.572 475.458 469.563 488.202 465.801C500.174 462.266 517.922 461.542 525.805 461.398C527.806 461.362 529.306 459.378 528.792 457.421L528.14 454.941Z" fill="#26004D"/>
</g>
<defs>
<clipPath id="clip0_56_1367">
<rect width="722" height="1022" fill="white" transform="translate(46 48)"/>
</clipPath>
</defs>
</svg>
